X: 1
T:Amelia's Waltz
M:3/4
L:1/8
S:Gregory Taylor, Ir-trad, april 1997
K:D
"D"D3E3D2|"D"D2F3E|"Bm"D2F2BF|"F#m"A3FA2|\
"G"B2G3B|"D"A2F3E|"Bm"D2B3^A|"G"B4A2|
"D"D3ED2|"D"D2F3E|"Bm"D2F2BF|"G"B3cD2|\
"G"d2e2f2|"A"e2c2A2 :|"A"A3fag|"D"f2a3b|
"D"a2f2df|"A"e3cb2|"A"A3cfe|"Bm"d3cd|\
"Bm"f3ed2|"F#m"c3BA2|"F#m"F3EF2|"G"G2B3G|
"D"F2A2d2|"A"e3ce2|"D"f2d2f2|"G"g3fg2|\
"D"a2f2e2|"A"a2e2c2|"D"d4 |>|
